X: 15
T: Acemaşîrân Aranağme (Yürüksemâî)
C: ?
O: Turkey
F: http://compmusic.upf.edu/node/140
N: acemasiran--aranagme--yuruksemai--1--
N: makam= acemasiran
N: form= aranagme
N: usul= yuruksemai = 6/8
M: 6/8
L: 1/16
K: C _B   
Q: 1/4=120
%%MIDI tuningsystem comma53
F2A2 c2f2 g2^g2  | a8-a2z2  | F2A2 c2e2 f2^f2  | \
w:  ARANAĞME  |   |   | 
g8-g2z2  | gaga f2fg fge2  | 
w:   |   | 
d2e2 eded c4  | A2B2 c2A2 A2G2  | F2A2 c2F2 z4  | \
w:   |   |   | 
F2A2 c2f2 g2^g2  | 
w:  ARANAĞME  | 
a8-a2z2  | F2A2 c2e2 f2^f2  | g8-g2z2  | \
w:   |   |   | 
gaga f2fg fge2  | 
w:   | 
d2e2 eded c4  | A2B2 c2A2 A2G2  | F2A2 c2F2 z4  | |


